X:1
T:Title
%%score { 1 | 2 }
L:1/8
M:6/4
K:F
V:1 treble nm="Grand Piano"
V:2 bass 
V:1
 z6 z4[Q:1/4=126] c2 | c4 d2 c4 B2 | A6- A4 [DFB]2 | [CFA]4 F2 G4 E2 | F6- F4 c2 | c4 d2 c4 B2 | %6
 A4 [B,EG]2 [A,F]4 [DFG]2 | [CFA]4 [Fc]2 [EB]4 [EG]2 | [CF]12 | [EG]4 [EG]2 [Ec]4 [Ec]2 | %10
 =B3 c d2 [Ec]6 | [Ge]3 [Fd] [Ec]2 [EG]2 [Ec]2 [Ge]2 | [Fd]6 [Ec]6 | [Ed]4 [Fc]2 [EB]4 [EG]2 | %14
 [Ec]4 [CGB]2 .[CFA]6 | [CF]4 [B,DF]2 [A,CF]4 [G,CE]2 | [A,CF]12 |] %17
V:2
 z6 z4 [F,A,F]2 | [F,A,F]4 [F,B,F]2 [F,A,F]4 [F,DF]2 | [F,CF]6- [F,CF]4 B,,2 | %3
 C,4 [C,A,C]2 [C,B,C]4 [C,G,C]2 | [F,A,C]6- [F,A,C]4 [F,A,F]2 | %5
 [F,A,F]4 [F,B,F]2 [F,A,F]4 [F,DF]2 | [F,CF]4 C,2 D,4 B,,2 | C,4 [C,A,]2 [C,G,]4 [C,B,C]2 | %8
 [F,A,]12 | [C,C]4 [C,C]2 [C,G,]4 [C,G,]2 | [G,D]3 [G,E] [G,F]2[K:bass] [C,G,]6 | %11
 [C,G,]3 [C,G,] [C,C]2 [C,C]2 [C,C]2 [C,G,]2 | [G,=B,]6 [C,C]6 | [C,B,]4 [C,A,]2 [C,G,]4 [C,C]2 | %14
 [C,G,]4 E,2 .F,6 | A,,4 B,,2 C,4 C,2 | F,12 |] %17

